;FLAVOR:Marlin
;TIME:1264
;Filament used: 1.97982m
;Layer height: 0.32
;MINX:102.181
;MINY:104.553
;MINZ:0.32
;MAXX:145.386
;MAXY:186.639
;MAXZ:12.6
;TARGET_MACHINE.NAME:VORON2 250
;Generated with Cura_SteamEngine 5.9.0
M140 S60
M105
M190 S60
M104 S220
M105
M109 S220
M82 ;absolute extrusion mode
START_PRINT
G92 E0
G92 E0
G1 F1200 E-0.5
;LAYER_COUNT:38
;LAYER:0
M107
M204 S2000
G1 F600 Z0.76
G0 F4800 X131.909 Y186.492 Z0.76
;TYPE:SKIRT
G1 F600 Z0.32
G1 F600 E0
G1 F1200 X131.606 Y186.532 E0.02684
G1 X130.602 Y186.617 E0.11531
G1 X130.358 Y186.629 E0.13676
G1 X129.52 Y186.638 E0.21035
G1 X115.66 Y186.639 E1.42735
G1 X114.621 Y186.62 E1.51859
G1 X114.392 Y186.608 E1.53873
G1 X113.512 Y186.531 E1.6163
G1 X113.219 Y186.492 E1.64225
G1 X112.447 Y186.352 E1.71114
G1 X111.86 Y186.222 E1.76393
G1 X111.584 Y186.148 E1.78902
G1 X110.79 Y185.899 E1.86209
G1 X110.501 Y185.794 E1.88909
G1 X109.609 Y185.421 E1.97399
G1 X109.017 Y185.13 E2.03191
G1 X108.694 Y184.95 E2.06438
G1 X107.717 Y184.332 E2.16588
G1 X107.523 Y184.199 E2.18654
G1 X107.137 Y183.905 E2.22914
G1 X106.365 Y183.255 E2.31776
G1 X106.172 Y183.079 E2.34069
G1 X105.784 Y182.692 E2.38881
G1 X105.388 Y182.262 E2.44014
G1 X105.026 Y181.833 E2.48943
G1 X104.786 Y181.525 E2.52371
G1 X104.569 Y181.224 E2.5563
G1 X103.974 Y180.298 E2.65294
G1 X103.822 Y180.034 E2.67969
G1 X103.408 Y179.232 E2.75894
G1 X103.3 Y179.001 E2.78133
G1 X103.068 Y178.447 E2.83407
G1 X102.919 Y178.033 E2.87271
G1 X102.671 Y177.243 E2.94541
G1 X102.596 Y176.964 E2.97078
G1 X102.419 Y176.162 E3.04289
G1 X102.369 Y175.875 E3.06847
G1 X102.242 Y174.903 E3.15455
G1 X102.218 Y174.641 E3.17765
G1 X102.19 Y174.036 E3.23083
G1 X102.181 Y173.179 E3.30608
G1 X102.189 Y158.736 E4.57428
G1 X102.232 Y157.766 E4.65953
G1 X102.259 Y157.47 E4.68563
G1 X102.391 Y156.487 E4.77272
G1 X102.435 Y156.234 E4.79527
G1 X103.084 Y153.01 E5.08404
G1 X103.538 Y150.333 E5.32245
G1 X103.923 Y147.589 E5.56575
G1 X104.222 Y144.918 E5.80175
G1 X104.452 Y142.153 E6.04538
G1 X104.6 Y139.445 E6.28351
G1 X104.673 Y136.704 E6.52427
G1 X104.662 Y133.555 E6.80078
G1 X104.621 Y131.459 E6.98486
G1 X104.622 Y118.282 E8.14189
G1 X104.661 Y116.572 E8.29208
G1 X104.684 Y116.247 E8.32068
G1 X104.806 Y115.293 E8.40513
G1 X104.881 Y114.891 E8.44104
G1 X105.016 Y114.287 E8.49539
G1 X105.126 Y113.881 E8.53232
G1 X105.26 Y113.441 E8.57271
G1 X105.447 Y112.906 E8.62247
G1 X105.617 Y112.475 E8.66315
G1 X105.788 Y112.084 E8.70063
G1 X106.152 Y111.349 E8.77264
G1 X106.604 Y110.57 E8.85173
G1 X106.835 Y110.216 E8.88884
G1 X107.219 Y109.677 E8.94695
G1 X107.551 Y109.262 E8.99362
G1 X108.187 Y108.546 E9.07771
G1 X108.604 Y108.125 E9.12974
G1 X109.167 Y107.621 E9.19609
G1 X109.672 Y107.21 E9.25326
G1 X109.886 Y107.05 E9.27672
G1 X110.362 Y106.725 E9.32733
G1 X110.827 Y106.43 E9.37569
G1 X111.273 Y106.169 E9.42106
G1 X111.482 Y106.057 E9.44188
G1 X112.307 Y105.655 E9.52246
G1 X112.902 Y105.408 E9.57903
G1 X113.481 Y105.202 E9.63299
G1 X113.953 Y105.059 E9.6763
G1 X114.687 Y104.872 E9.74281
G1 X115.448 Y104.726 E9.81085
G1 X115.89 Y104.663 E9.85005
G1 X116.455 Y104.605 E9.89992
G1 X116.726 Y104.589 E9.92376
G1 X118.493 Y104.553 E10.07895
G1 X131.537 Y104.553 E11.2243
G1 X133.205 Y104.585 E11.37079
G1 X133.432 Y104.597 E11.39075
G1 X134.1 Y104.661 E11.44967
G1 X134.79 Y104.764 E11.51093
G1 X135.468 Y104.903 E11.5717
G1 X136.071 Y105.062 E11.62646
G1 X136.773 Y105.286 E11.69116
G1 X137.533 Y105.579 E11.76268
G1 X137.928 Y105.753 E11.80058
G1 X138.655 Y106.119 E11.87205
G1 X139.237 Y106.456 E11.9311
G1 X139.729 Y106.772 E11.98244
G1 X140.286 Y107.169 E12.0425
G1 X140.627 Y107.441 E12.0808
G1 X141.221 Y107.953 E12.14966
G1 X141.603 Y108.326 E12.19654
G1 X142.081 Y108.833 E12.25773
G1 X142.233 Y109.006 E12.27795
G1 X142.743 Y109.628 E12.34858
G1 X142.909 Y109.847 E12.37271
G1 X143.143 Y110.186 E12.40887
G1 X143.509 Y110.759 E12.46858
G1 X143.77 Y111.205 E12.51395
G1 X143.881 Y111.413 E12.53465
G1 X144.283 Y112.237 E12.61516
G1 X144.526 Y112.821 E12.6707
G1 X144.741 Y113.425 E12.72699
G1 X144.867 Y113.835 E12.76466
G1 X144.985 Y114.268 E12.80406
G1 X145.126 Y114.905 E12.86135
G1 X145.276 Y115.82 E12.94276
G1 X145.334 Y116.384 E12.99255
G1 X145.35 Y116.656 E13.01647
G1 X145.386 Y118.425 E13.17184
G1 X145.385 Y131.533 E14.32281
G1 X145.354 Y133.136 E14.46359
G1 X145.342 Y133.362 E14.48346
G1 X145.28 Y134.019 E14.5414
G1 X145.19 Y134.64 E14.5965
G1 X144.555 Y137.792 E14.87883
G1 X144.09 Y140.475 E15.11793
G1 X143.697 Y143.206 E15.3602
G1 X143.389 Y145.89 E15.59742
G1 X143.149 Y148.664 E15.8419
G1 X142.991 Y151.371 E16.08
G1 X142.91 Y154.082 E16.31815
G1 X142.906 Y156.854 E16.56155
G1 X142.936 Y158.244 E16.68363
G1 X142.946 Y159.234 E16.77057
G1 X142.941 Y173.62 E18.03375
G1 X142.885 Y174.9 E18.14625
G1 X142.864 Y175.154 E18.16863
G1 X142.796 Y175.683 E18.21546
G1 X142.71 Y176.167 E18.25863
G1 X142.502 Y177.086 E18.34136
G1 X142.438 Y177.328 E18.36334
G1 X142.307 Y177.74 E18.4013
G1 X142.014 Y178.546 E18.47661
G1 X141.899 Y178.821 E18.50278
G1 X141.452 Y179.775 E18.59529
G1 X141.248 Y180.148 E18.63262
G1 X140.689 Y181.028 E18.72416
G1 X140.519 Y181.27 E18.75013
G1 X139.943 Y182.02 E18.83316
G1 X139.771 Y182.227 E18.8568
G1 X139.495 Y182.526 E18.89253
G1 X138.857 Y183.164 E18.97175
G1 X138.642 Y183.36 E18.9973
G1 X138.047 Y183.859 E19.06548
G1 X137.815 Y184.037 E19.09116
G1 X136.994 Y184.611 E19.17912
G1 X136.778 Y184.75 E19.20167
G1 X136.305 Y185.025 E19.24972
G1 X135.81 Y185.287 E19.29889
G1 X135.529 Y185.42 E19.32619
G1 X134.616 Y185.799 E19.41299
G1 X134.334 Y185.901 E19.43932
G1 X133.558 Y186.144 E19.51072
G1 X133.283 Y186.217 E19.53571
G1 X132.51 Y186.385 E19.60517
G1 X131.909 Y186.492 E19.65877
G1 F1200 E19.15877
G1 F600 Z0.76
;MESH:aza-gopro-lens-cap.stl
G0 F4800 X133.969 Y140.844 Z0.76
;TYPE:WALL-OUTER
G1 F600 Z0.32
G1 F600 E19.65877
G1 F1200 X133.231 Y140.936 E19.71813
G1 X132.514 Y140.964 E19.77541
G1 X117.49 Y140.964 E20.97469
G1 X116.774 Y140.936 E21.03189
G1 X116.034 Y140.839 E21.09147
G1 X115.402 Y140.708 E21.14299
G1 X114.73 Y140.508 E21.19895
G1 X114.084 Y140.256 E21.25431
G1 X113.451 Y139.951 E21.31039
G1 X112.848 Y139.592 E21.36641
G1 X112.288 Y139.198 E21.42107
G1 X111.743 Y138.738 E21.478
G1 X111.253 Y138.255 E21.53292
G1 X110.797 Y137.719 E21.58909
G1 X110.336 Y137.076 E21.65225
G1 X109.981 Y136.474 E21.70804
G1 X109.68 Y135.852 E21.7632
G1 X109.429 Y135.203 E21.81874
G1 X109.232 Y134.535 E21.87433
G1 X109.081 Y133.802 E21.93407
G1 X109 Y133.163 E21.98549
G1 X108.972 Y132.454 E22.04213
G1 X108.972 Y117.422 E23.24205
G1 X109 Y116.704 E23.29941
G1 X109.077 Y116.065 E23.35078
G1 X109.228 Y115.333 E23.41045
G1 X109.425 Y114.666 E23.46596
G1 X109.68 Y114.017 E23.52162
G1 X109.985 Y113.386 E23.57757
G1 X110.341 Y112.78 E23.63367
G1 X110.738 Y112.22 E23.68847
G1 X111.194 Y111.679 E23.74495
G1 X111.677 Y111.192 E23.7997
G1 X112.207 Y110.736 E23.85551
G1 X112.782 Y110.319 E23.91221
G1 X113.456 Y109.916 E23.97489
G1 X114.006 Y109.647 E24.02376
G1 X114.722 Y109.364 E24.08522
G1 X115.403 Y109.163 E24.1419
G1 X116.035 Y109.025 E24.19354
G1 X116.774 Y108.936 E24.25295
G1 X117.4 Y108.904 E24.30299
G1 X132.514 Y108.904 E25.50945
G1 X133.23 Y108.932 E25.56665
G1 X133.97 Y109.029 E25.62623
G1 X134.602 Y109.16 E25.67775
G1 X135.274 Y109.36 E25.73372
G1 X135.92 Y109.612 E25.78907
G1 X136.542 Y109.913 E25.84423
G1 X137.157 Y110.277 E25.90127
G1 X137.72 Y110.67 E25.95608
G1 X138.256 Y111.126 E26.01225
G1 X138.744 Y111.609 E26.06706
G1 X139.2 Y112.139 E26.12287
G1 X139.617 Y112.714 E26.17957
G1 X140.019 Y113.391 E26.24242
G1 X140.32 Y114.013 E26.29758
G1 X140.575 Y114.662 E26.35324
G1 X140.772 Y115.333 E26.40906
G1 X140.923 Y116.061 E26.46841
G1 X141 Y116.705 E26.52019
G1 X141.032 Y117.415 E26.57692
G1 X141.032 Y132.446 E27.77676
G1 X141.004 Y133.163 E27.83404
G1 X140.923 Y133.803 E27.88553
G1 X140.776 Y134.535 E27.94513
G1 X140.579 Y135.202 E28.00065
G1 X140.324 Y135.851 E28.05631
G1 X140.023 Y136.474 E28.11154
G1 X139.663 Y137.088 E28.16835
G1 X139.266 Y137.644 E28.22289
G1 X138.805 Y138.194 E28.28017
G1 X138.327 Y138.68 E28.33459
G1 X137.798 Y139.132 E28.39013
G1 X137.217 Y139.553 E28.4474
G1 X136.643 Y139.9 E28.50095
G1 X135.99 Y140.225 E28.55917
G1 X135.282 Y140.504 E28.61992
G1 X135.059 Y140.57 E28.63848
G0 F1080 X134.601 Y140.705
G0 X133.969 Y140.844
G0 F4800 X133.231 Y140.936
G0 X132.514 Y140.964
G0 X128.976 Y140.964
G1 F1200 E28.13848
G1 F600 Z0.76
G0 F4800 X133.863 Y140.254 Z0.76
;TYPE:SKIN
G1 F600 Z0.32
G1 F600 E28.63848
G1 F1200 X133.185 Y140.338 E28.69847
G1 X132.497 Y140.366 E28.75893
G1 X117.503 Y140.366 E30.0755
G1 X116.818 Y140.338 E30.1357
G1 X116.077 Y140.234 E30.2014
G1 X115.541 Y140.123 E30.24947
G1 X114.919 Y139.939 E30.30642
G1 X114.325 Y139.709 E30.36235
G1 X113.733 Y139.421 E30.42016
G1 X113.168 Y139.086 E30.47784
G1 X112.654 Y138.726 E30.53294
G1 X112.139 Y138.292 E30.59207
G1 X111.687 Y137.843 E30.64802
G1 X111.273 Y137.353 E30.70434
G1 X110.833 Y136.739 E30.77067
G1 X110.507 Y136.187 E30.82696
G1 X110.224 Y135.604 E30.88386
G1 X109.997 Y135.013 E30.93945
G1 X109.813 Y134.395 E30.99607
G1 X109.662 Y133.658 E31.06213
G1 X109.594 Y133.117 E31.11001
G1 X109.57 Y132.446 E31.16896
G1 X109.57 Y117.434 E32.48712
G1 X109.594 Y116.751 E32.54713
G1 X109.666 Y116.166 E32.59888
G1 X109.809 Y115.473 E32.66101
G1 X109.989 Y114.868 E32.71644
G1 X110.227 Y114.26 E32.77377
G1 X110.516 Y113.659 E32.83233
G1 X110.838 Y113.108 E32.88836
G1 X111.206 Y112.591 E32.94408
G1 X111.636 Y112.08 E33.00273
G1 X112.082 Y111.634 E33.05811
G1 X112.574 Y111.207 E33.11531
G1 X113.115 Y110.816 E33.17392
G1 X113.734 Y110.443 E33.23738
G1 X114.249 Y110.191 E33.28772
G1 X114.92 Y109.929 E33.35098
G1 X115.555 Y109.74 E33.40915
G1 X116.132 Y109.614 E33.46101
G1 X116.824 Y109.53 E33.52222
G1 X117.416 Y109.502 E33.57426
G1 X132.498 Y109.502 E34.89856
G1 X133.183 Y109.526 E34.95874
G1 X133.923 Y109.63 E35.02436
G1 X134.459 Y109.741 E35.07242
G1 X135.08 Y109.925 E35.12929
G1 X135.671 Y110.159 E35.18511
G1 X136.26 Y110.444 E35.24256
G1 X136.833 Y110.779 E35.30084
G1 X137.357 Y111.146 E35.35701
G1 X137.848 Y111.564 E35.41363
G1 X138.302 Y112.014 E35.46976
G1 X138.725 Y112.506 E35.52674
G1 X139.119 Y113.046 E35.58543
G1 X139.492 Y113.681 E35.6501
G1 X139.769 Y114.249 E35.70558
G1 X140.007 Y114.851 E35.76243
G1 X140.187 Y115.473 E35.81928
G1 X140.33 Y116.15 E35.88004
G1 X140.402 Y116.756 E35.93362
G1 X140.434 Y117.424 E35.99235
G1 X140.434 Y132.429 E37.30989
G1 X140.406 Y133.116 E37.37026
G1 X140.338 Y133.662 E37.41857
G1 X140.191 Y134.397 E37.48439
G1 X140.015 Y135.001 E37.53963
G1 X139.777 Y135.607 E37.5968
G1 X139.492 Y136.196 E37.65425
G1 X139.162 Y136.756 E37.71133
G1 X138.794 Y137.273 E37.76705
G1 X138.355 Y137.794 E37.82687
G1 X137.918 Y138.242 E37.88182
G1 X137.431 Y138.656 E37.93795
G1 X136.881 Y139.056 E37.99766
G1 X136.357 Y139.37 E38.0513
G1 X135.742 Y139.678 E38.1117
G1 X135.081 Y139.935 E38.17397
G1 X134.44 Y140.124 E38.23265
G1 X133.863 Y140.254 E38.28459
G1 F1200 E37.78459
G1 F600 Z0.76
G0 F4800 X138.453 Y113.252 Z0.76
G1 F600 Z0.32
G1 F600 E38.28459
G1 F1200 X136.674 Y111.473 E38.5055
G1 X136.485 Y111.34 E38.52579
G1 X135.948 Y111.025 E38.58046
G1 X135.404 Y110.763 E38.63347
G1 X134.797 Y110.529 E38.6906
G1 X139.402 Y115.134 E39.26243
G1 X139.548 Y115.633 E39.30809
G1 X139.677 Y116.255 E39.36386
G1 X139.689 Y116.354 E39.37262
G1 X133.583 Y110.249 E40.13079
G1 X133.125 Y110.183 E40.17142
G1 X132.566 Y110.165 E40.22053
G1 X139.77 Y117.369 E41.1151
G1 X139.774 Y118.306 E41.19738
G1 X131.63 Y110.162 E42.20868
G1 X130.697 Y110.162 E42.2906
G1 X139.774 Y119.239 E43.41776
G1 X139.774 Y120.173 E43.49977
G1 X129.763 Y110.162 E44.74291
G1 X128.83 Y110.162 E44.82484
G1 X139.774 Y121.106 E46.18384
G1 X139.774 Y122.04 E46.26585
G1 X127.897 Y110.162 E47.74077
G1 X126.963 Y110.162 E47.82278
G1 X139.774 Y122.973 E49.41362
G1 X139.774 Y123.906 E49.49554
G1 X126.03 Y110.162 E51.20223
G1 X125.096 Y110.162 E51.28425
G1 X139.774 Y124.84 E53.10692
G1 X139.774 Y125.773 E53.18885
G1 X124.163 Y110.162 E55.12738
G1 X123.23 Y110.162 E55.20931
G1 X139.774 Y126.706 E57.2637
G1 X139.774 Y127.64 E57.34571
G1 X122.296 Y110.162 E59.51608
G1 X121.363 Y110.162 E59.59801
G1 X139.774 Y128.573 E61.88424
G1 X139.774 Y129.507 E61.96625
G1 X120.429 Y110.162 E64.36847
G1 X119.496 Y110.162 E64.45039
G1 X139.774 Y130.44 E66.96846
G1 X139.774 Y131.373 E67.05038
G1 X118.563 Y110.162 E69.68431
G1 X117.629 Y110.162 E69.76633
G1 X139.774 Y132.307 E72.51624
G1 X139.747 Y133.07 E72.58327
G1 X139.731 Y133.198 E72.5946
G1 X116.739 Y110.205 E75.44975
G1 X116.234 Y110.267 E75.49443
G1 X115.934 Y110.333 E75.5214
G1 X139.597 Y133.997 E78.45987
G1 X139.548 Y134.243 E78.4819
G1 X139.404 Y134.737 E78.52708
G1 X115.2 Y110.534 E81.53261
G1 X115.133 Y110.553 E81.53873
G1 X114.525 Y110.792 E81.59609
G1 X139.141 Y135.407 E84.65278
G1 X138.909 Y135.885 E84.69943
G1 X138.826 Y136.026 E84.7138
G1 X113.909 Y111.108 E87.80799
G1 X113.478 Y111.366 E87.8521
G1 X113.336 Y111.47 E87.86756
G1 X138.465 Y136.598 E90.98795
G1 X138.272 Y136.868 E91.01709
G1 X138.057 Y137.124 E91.04645
G1 X112.81 Y111.877 E94.18156
G1 X112.54 Y112.11 E94.21287
G1 X112.325 Y112.325 E94.23957
G1 X137.612 Y137.612 E97.37965
G1 X137.475 Y137.752 E97.39685
G1 X137.12 Y138.053 E97.43771
G1 X111.881 Y112.814 E100.57183
G1 X111.727 Y112.997 E100.59283
G1 X111.479 Y113.346 E100.63043
G1 X136.587 Y138.454 E103.74827
G1 X136.518 Y138.504 E103.75576
G1 X136.006 Y138.806 E103.80795
G1 X111.125 Y113.925 E106.89761
G1 X110.82 Y114.553 E106.95891
G1 X135.377 Y139.111 E110.0084
G1 X134.869 Y139.308 E110.05625
G1 X134.693 Y139.359 E110.07233
G1 X110.567 Y115.234 E113.06818
G1 X110.449 Y115.634 E113.1048
G1 X110.378 Y115.978 E113.13564
G1 X133.955 Y139.555 E116.06337
G1 X133.745 Y139.603 E116.08229
G1 X133.144 Y139.678 E116.13547
G1 X110.254 Y116.787 E118.97795
G1 X110.23 Y117.451 E119.0363
G1 X110.23 Y117.697 E119.0579
G1 X132.239 Y139.706 E121.79092
G1 X131.305 Y139.706 E121.87293
G1 X110.23 Y118.631 E124.48997
G1 X110.23 Y119.564 E124.5719
G1 X130.372 Y139.706 E127.07308
G1 X129.439 Y139.706 E127.155
G1 X110.23 Y120.497 E129.54033
G1 X110.23 Y121.431 E129.62234
G1 X128.505 Y139.706 E131.89168
G1 X127.572 Y139.706 E131.97361
G1 X110.23 Y122.364 E134.12709
G1 X110.23 Y123.298 E134.20911
G1 X126.639 Y139.706 E136.24667
G1 X125.705 Y139.706 E136.32868
G1 X110.23 Y124.231 E138.25033
G1 X110.23 Y125.164 E138.33225
G1 X124.772 Y139.706 E140.13804
G1 X123.838 Y139.706 E140.22006
G1 X110.23 Y126.098 E141.90986
G1 X110.23 Y127.031 E141.99179
G1 X122.905 Y139.706 E143.56574
G1 X121.972 Y139.706 E143.64766
G1 X110.23 Y127.964 E145.10575
G1 X110.23 Y128.898 E145.18776
G1 X121.038 Y139.706 E146.52987
G1 X120.105 Y139.706 E146.6118
G1 X110.23 Y129.831 E147.83805
G1 X110.23 Y130.765 E147.92006
G1 X119.172 Y139.706 E149.0304
G1 X118.238 Y139.706 E149.11241
G1 X110.23 Y131.698 E150.10682
G1 X110.237 Y132.638 E150.18936
G1 X117.295 Y139.696 E151.06581
G1 X116.877 Y139.68 E151.10254
G1 X116.258 Y139.593 E151.15742
G1 X110.338 Y133.673 E151.89255
G1 X110.451 Y134.226 E151.94211
G1 X110.623 Y134.802 E151.9949
G1 X110.678 Y134.946 E152.00843
G1 X114.991 Y139.259 E152.54401
G1 X114.588 Y139.103 E152.58196
G1 X114.045 Y138.839 E152.63497
G1 X113.528 Y138.533 E152.68772
G1 X113.056 Y138.201 E152.73839
G1 X112.702 Y137.903 E152.77902
G1 X112.057 Y137.258 E152.85912
G1 F1200 E152.35912
G1 F600 Z0.76
;MESH:GoPro Hero 9-11 lens cap.stl
G0 F4800 X131.611 Y182.144 Z0.76
;TYPE:WALL-OUTER
G1 F600 Z0.32
G1 F600 E152.85912
G1 F1200 X131.168 Y182.214 E152.89492
G1 X130.838 Y182.249 E152.92141
G1 X130.5 Y182.272 E152.94845
G1 X130.131 Y182.283 E152.97792
G1 X115.048 Y182.284 E154.18191
G1 X114.673 Y182.276 E154.21185
G1 X114.302 Y182.252 E154.24153
G1 X113.947 Y182.214 E154.27003
G1 X113.616 Y182.164 E154.29675
G1 X113.244 Y182.09 E154.32703
G1 X112.838 Y181.993 E154.36035
G1 X112.482 Y181.889 E154.38995
G1 X112.123 Y181.769 E154.42017
G1 X111.493 Y181.511 E154.47451
G1 X111.154 Y181.345 E154.50464
G1 X110.826 Y181.167 E154.53443
G1 X110.51 Y180.975 E154.56395
G1 X110.171 Y180.749 E154.59647
