;FLAVOR:Marlin
;TIME:1268
;Filament used: 1.1231m
;Layer height: 0.2
;MINX:104.918
;MINY:104.918
;MINZ:0.2
;MAXX:145.081
;MAXY:145.081
;MAXZ:12.44
;TARGET_MACHINE.NAME:VORON2 250
;Generated with Cura_SteamEngine 5.9.0
M140 S60
M105
M190 S60
M104 S220
M105
M109 S220
M82 ;absolute extrusion mode
START_PRINT
G92 E0
G92 E0
G1 F1200 E-0.5
;LAYER_COUNT:60
;LAYER:0
M107
M204 S2000
G1 F600 Z0.64
G0 F4800 X134.477 Y144.918 Z0.64
;TYPE:SKIRT
G1 F600 Z0.2
G1 F600 E0
G1 F1200 X134.105 Y144.969 E0.02061
G1 X133.551 Y145.028 E0.05118
G1 X133.265 Y145.046 E0.06691
G1 X131.499 Y145.081 E0.16384
G1 X118.353 Y145.08 E0.88529
G1 X116.677 Y145.043 E0.97729
G1 X116.345 Y145.019 E0.99555
G1 X115.396 Y144.897 E1.04806
G1 X114.973 Y144.818 E1.07168
G1 X114.384 Y144.685 E1.10481
G1 X113.98 Y144.573 E1.12782
G1 X113.448 Y144.407 E1.15841
G1 X113.046 Y144.263 E1.18184
G1 X112.47 Y144.03 E1.21594
G1 X112.076 Y143.849 E1.23973
G1 X111.629 Y143.626 E1.26715
G1 X111.412 Y143.507 E1.28073
G1 X110.717 Y143.093 E1.32513
G1 X110.496 Y142.95 E1.33957
G1 X109.958 Y142.569 E1.37575
G1 X109.755 Y142.412 E1.38983
G1 X109.064 Y141.832 E1.43934
G1 X108.761 Y141.55 E1.46206
G1 X108.426 Y141.215 E1.48806
G1 X108.262 Y141.038 E1.5013
G1 X107.591 Y140.253 E1.55797
G1 X107.37 Y139.956 E1.57829
G1 X106.947 Y139.342 E1.61921
G1 X106.803 Y139.114 E1.63401
G1 X106.4 Y138.414 E1.67834
G1 X106.269 Y138.161 E1.69397
G1 X105.96 Y137.499 E1.73406
G1 X105.864 Y137.273 E1.74754
G1 X105.568 Y136.477 E1.79415
G1 X105.434 Y136.046 E1.81891
G1 X105.322 Y135.641 E1.84198
G1 X105.081 Y134.477 E1.90721
G1 X105.03 Y134.106 E1.92776
G1 X104.971 Y133.554 E1.95823
G1 X104.953 Y133.267 E1.97401
G1 X104.918 Y131.499 E2.07105
G1 X104.919 Y118.349 E2.79272
G1 X104.958 Y116.652 E2.88587
G1 X104.982 Y116.321 E2.90408
G1 X105.102 Y115.396 E2.95527
G1 X105.181 Y114.973 E2.97889
G1 X105.314 Y114.384 E3.01202
G1 X105.426 Y113.98 E3.03503
G1 X105.592 Y113.448 E3.06562
G1 X105.688 Y113.174 E3.08155
G1 X105.973 Y112.461 E3.12369
G1 X106.15 Y112.076 E3.14694
G1 X106.373 Y111.629 E3.17436
G1 X106.492 Y111.412 E3.18794
G1 X106.906 Y110.717 E3.23233
G1 X107.049 Y110.496 E3.24678
G1 X107.43 Y109.958 E3.28296
G1 X107.586 Y109.756 E3.29697
G1 X108.158 Y109.073 E3.34586
G1 X108.451 Y108.759 E3.36943
G1 X108.784 Y108.426 E3.39527
G1 X108.959 Y108.264 E3.40836
G1 X109.749 Y107.589 E3.46538
G1 X110.041 Y107.372 E3.48535
G1 X110.651 Y106.951 E3.52602
G1 X110.881 Y106.806 E3.54094
G1 X111.595 Y106.395 E3.58616
G1 X111.829 Y106.272 E3.60066
G1 X112.394 Y106.004 E3.63498
G1 X112.63 Y105.903 E3.64907
G1 X113.327 Y105.636 E3.69003
G1 X113.953 Y105.434 E3.72613
G1 X114.358 Y105.322 E3.74919
G1 X115.522 Y105.081 E3.81442
G1 X115.894 Y105.03 E3.83503
G1 X116.448 Y104.971 E3.8656
G1 X116.734 Y104.953 E3.88133
G1 X118.5 Y104.918 E3.97827
G1 X131.573 Y104.918 E4.6957
G1 X133.322 Y104.956 E4.79171
G1 X133.652 Y104.98 E4.80987
G1 X134.603 Y105.102 E4.86249
G1 X135.026 Y105.181 E4.8861
G1 X135.615 Y105.314 E4.91924
G1 X136.019 Y105.426 E4.94225
G1 X136.552 Y105.592 E4.97288
G1 X136.823 Y105.687 E4.98864
G1 X137.529 Y105.969 E5.03036
G1 X137.923 Y106.15 E5.05416
G1 X138.37 Y106.373 E5.08157
G1 X138.587 Y106.492 E5.09515
G1 X139.282 Y106.906 E5.13955
G1 X139.503 Y107.049 E5.15399
G1 X140.041 Y107.43 E5.19017
G1 X140.243 Y107.586 E5.20418
G1 X140.924 Y108.157 E5.25295
G1 X141.233 Y108.445 E5.27613
G1 X141.738 Y108.96 E5.31572
G1 X142.372 Y109.7 E5.36919
G1 X142.628 Y110.041 E5.39259
G1 X143.05 Y110.654 E5.43344
G1 X143.192 Y110.878 E5.44799
G1 X143.598 Y111.582 E5.49259
G1 X143.728 Y111.831 E5.50801
G1 X144.026 Y112.466 E5.5465
G1 X144.124 Y112.698 E5.56032
G1 X144.428 Y113.514 E5.60811
G1 X144.559 Y113.936 E5.63236
G1 X144.728 Y114.572 E5.66847
G1 X144.915 Y115.506 E5.72075
G1 X144.969 Y115.893 E5.74219
G1 X145.028 Y116.445 E5.77266
G1 X145.046 Y116.732 E5.78844
G1 X145.081 Y118.5 E5.88548
G1 X145.08 Y131.646 E6.60693
G1 X145.043 Y133.322 E6.69893
G1 X145.025 Y133.606 E6.71454
G1 X144.973 Y134.074 E6.74039
G1 X144.866 Y134.779 E6.77952
G1 X144.73 Y135.427 E6.81585
G1 X144.667 Y135.679 E6.83011
G1 X144.409 Y136.543 E6.87959
G1 X144.27 Y136.934 E6.90237
G1 X144.03 Y137.529 E6.93758
G1 X143.85 Y137.92 E6.9612
G1 X143.516 Y138.573 E7.00145
G1 X143.164 Y139.17 E7.03949
G1 X142.923 Y139.544 E7.0639
G1 X142.554 Y140.061 E7.09876
G1 X141.964 Y140.785 E7.15002
G1 X141.648 Y141.135 E7.17589
G1 X141.218 Y141.57 E7.20946
G1 X141.04 Y141.736 E7.22282
G1 X140.254 Y142.407 E7.27953
G1 X139.965 Y142.623 E7.29933
G1 X139.347 Y143.049 E7.34053
G1 X139.121 Y143.191 E7.35517
G1 X138.419 Y143.596 E7.39965
G1 X138.179 Y143.722 E7.41453
G1 X137.427 Y144.072 E7.46005
G1 X136.974 Y144.253 E7.48682
G1 X136.482 Y144.429 E7.51549
G1 X136.046 Y144.565 E7.54056
G1 X135.641 Y144.677 E7.56362
G1 X134.477 Y144.918 E7.62885
G1 F1200 E7.12885
G1 F600 Z0.64
;MESH:aza-gopro-lens-cap.stl
G0 F4800 X133.862 Y140.859 Z0.64
;TYPE:WALL-OUTER
G1 F600 Z0.2
G1 F600 E7.62885
G1 F1200 X133.222 Y140.94 E7.66104
G1 X132.569 Y140.968 E7.69365
G1 X117.486 Y140.968 E8.44614
G1 X116.773 Y140.94 E8.48174
G1 X116.133 Y140.859 E8.51392
G1 X115.406 Y140.712 E8.55093
G1 X114.738 Y140.511 E8.58573
G1 X114.097 Y140.264 E8.62
G1 X113.467 Y139.955 E8.65501
G1 X112.868 Y139.599 E8.68977
G1 X112.308 Y139.206 E8.72391
G1 X111.772 Y138.75 E8.75901
G1 X111.277 Y138.259 E8.7938
G1 X110.833 Y137.738 E8.82795
G1 X110.419 Y137.163 E8.8633
G1 X110.037 Y136.525 E8.9004
G1 X109.731 Y135.891 E8.93552
G1 X109.504 Y135.317 E8.96631
G1 X109.288 Y134.586 E9.00434
G1 X109.137 Y133.858 E9.04144
G1 X109.056 Y133.223 E9.07337
G1 X109.028 Y132.518 E9.10857
G1 X109.028 Y117.486 E9.85852
G1 X109.056 Y116.772 E9.89417
G1 X109.133 Y116.137 E9.92608
G1 X109.284 Y115.406 E9.96332
G1 X109.481 Y114.742 E9.99788
G1 X109.731 Y114.097 E10.03239
G1 X110.041 Y113.467 E10.06742
G1 X110.397 Y112.867 E10.10223
G1 X110.786 Y112.312 E10.13604
G1 X111.246 Y111.772 E10.17143
G1 X111.737 Y111.277 E10.20621
G1 X112.254 Y110.837 E10.24008
G1 X112.829 Y110.423 E10.27543
G1 X113.467 Y110.041 E10.31253
G1 X114.106 Y109.731 E10.34797
G1 X114.675 Y109.504 E10.37853
G1 X115.41 Y109.288 E10.41675
G1 X116.134 Y109.137 E10.45365
G1 X116.774 Y109.056 E10.48583
G1 X117.427 Y109.028 E10.51844
G1 X132.51 Y109.028 E11.27093
G1 X133.223 Y109.056 E11.30653
G1 X133.863 Y109.137 E11.33872
G1 X134.59 Y109.284 E11.37572
G1 X135.258 Y109.485 E11.41052
G1 X135.899 Y109.732 E11.4448
G1 X136.529 Y110.041 E11.4798
G1 X137.128 Y110.397 E11.51457
G1 X137.688 Y110.79 E11.5487
G1 X138.224 Y111.246 E11.58381
G1 X138.719 Y111.737 E11.61859
G1 X139.159 Y112.254 E11.65246
G1 X139.573 Y112.829 E11.68781
G1 X139.956 Y113.468 E11.72498
G1 X140.261 Y114.093 E11.75967
G1 X140.488 Y114.67 E11.79061
G1 X140.708 Y115.41 E11.82912
G1 X140.859 Y116.13 E11.86583
G1 X140.94 Y116.774 E11.89821
G1 X140.968 Y117.419 E11.93042
G1 X140.968 Y132.51 E12.68331
G1 X140.94 Y133.224 E12.71896
G1 X140.863 Y133.859 E12.75087
G1 X140.712 Y134.59 E12.78811
G1 X140.515 Y135.254 E12.82267
G1 X140.265 Y135.899 E12.85718
G1 X139.955 Y136.529 E12.89221
G1 X139.599 Y137.129 E12.92702
G1 X139.21 Y137.684 E12.96083
G1 X138.75 Y138.224 E12.99622
G1 X138.259 Y138.719 E13.031
G1 X137.742 Y139.159 E13.06487
G1 X137.167 Y139.573 E13.10022
G1 X136.529 Y139.955 E13.13732
G1 X135.89 Y140.265 E13.17275
G1 X135.594 Y140.383 E13.18865
G0 F1080 X135.321 Y140.492
G0 X134.586 Y140.708
G0 X133.862 Y140.859
G0 F4800 X133.222 Y140.94
G0 X132.569 Y140.968
G0 X128.868 Y140.968
G1 F1200 E12.68865
G1 F600 Z0.64
G0 F4800 X133.717 Y140.274 Z0.64
;TYPE:SKIN
G1 F600 Z0.2
G1 F600 E13.18865
G1 F1200 X133.176 Y140.342 E13.21858
G1 X132.552 Y140.37 E13.25285
G1 X117.499 Y140.37 E14.07895
G1 X116.816 Y140.342 E14.11647
G1 X116.274 Y140.274 E14.14644
G1 X115.544 Y140.127 E14.18731
G1 X114.927 Y139.943 E14.22264
G1 X114.341 Y139.717 E14.25711
G1 X113.746 Y139.425 E14.29348
G1 X113.188 Y139.094 E14.32909
G1 X112.667 Y138.726 E14.3641
G1 X112.18 Y138.312 E14.39917
G1 X111.711 Y137.847 E14.43542
G1 X111.309 Y137.372 E14.46957
G1 X110.916 Y136.826 E14.50649
G1 X110.559 Y136.23 E14.54461
G1 X110.275 Y135.647 E14.5802
G1 X110.065 Y135.113 E14.61169
G1 X109.868 Y134.442 E14.65007
G1 X109.73 Y133.811 E14.68552
G1 X109.65 Y133.177 E14.72059
G1 X109.626 Y132.51 E14.75722
G1 X109.626 Y117.498 E15.58106
G1 X109.65 Y116.816 E15.61851
G1 X109.734 Y116.18 E15.65372
G1 X109.865 Y115.545 E15.6893
G1 X110.049 Y114.931 E15.72448
G1 X110.275 Y114.341 E15.75915
G1 X110.571 Y113.746 E15.79562
G1 X110.902 Y113.187 E15.83127
G1 X111.254 Y112.683 E15.86501
G1 X111.683 Y112.18 E15.90129
G1 X112.149 Y111.711 E15.93757
G1 X112.616 Y111.313 E15.97125
G1 X113.162 Y110.921 E16.00813
G1 X113.746 Y110.571 E16.0455
G1 X114.35 Y110.275 E16.08241
G1 X114.872 Y110.069 E16.11321
G1 X115.549 Y109.869 E16.15195
G1 X116.275 Y109.718 E16.19265
G1 X116.815 Y109.65 E16.22251
G1 X117.439 Y109.626 E16.25678
G1 X132.494 Y109.626 E17.08299
G1 X133.177 Y109.65 E17.1205
G1 X133.722 Y109.718 E17.15064
G1 X134.447 Y109.865 E17.19123
G1 X135.068 Y110.053 E17.22684
G1 X135.651 Y110.279 E17.26116
G1 X136.246 Y110.571 E17.29753
G1 X136.805 Y110.902 E17.33318
G1 X137.326 Y111.266 E17.36806
G1 X137.816 Y111.683 E17.40337
G1 X138.281 Y112.149 E17.4395
G1 X138.684 Y112.617 E17.47339
G1 X139.075 Y113.162 E17.5102
G1 X139.425 Y113.746 E17.54757
G1 X139.709 Y114.33 E17.58321
G1 X139.919 Y114.861 E17.61454
G1 X140.127 Y115.557 E17.65441
G1 X140.274 Y116.27 E17.69436
G1 X140.342 Y116.816 E17.72456
G1 X140.37 Y117.428 E17.75818
G1 X140.37 Y132.493 E18.58493
G1 X140.342 Y133.179 E18.62261
G1 X140.258 Y133.816 E18.65787
G1 X140.127 Y134.444 E18.69308
G1 X139.947 Y135.065 E18.72856
G1 X139.717 Y135.65 E18.76306
G1 X139.425 Y136.246 E18.79948
G1 X139.094 Y136.805 E18.83513
G1 X138.738 Y137.314 E18.86922
G1 X138.313 Y137.816 E18.90532
G1 X137.847 Y138.281 E18.94144
G1 X137.376 Y138.684 E18.97546
G1 X136.83 Y139.075 E19.01232
G1 X136.247 Y139.425 E19.04963
G1 X135.643 Y139.717 E19.08645
G1 X135.12 Y139.923 E19.1173
G1 X134.443 Y140.123 E19.15604
G1 X133.717 Y140.274 E19.19674
G1 F1200 E18.69674
G1 F600 Z0.64
G0 F4800 X139.103 Y114.592 Z0.64
G1 F600 Z0.2
G1 F600 E19.19674
G1 F1200 X138.845 Y114.061 E19.22913
G1 X138.524 Y113.526 E19.26337
G1 X138.161 Y113.02 E19.29755
G1 X137.805 Y112.607 E19.32747
G1 X137.364 Y112.166 E19.3617
G1 X136.927 Y111.792 E19.39326
G1 X136.448 Y111.459 E19.42528
G1 X135.923 Y111.147 E19.4588
G1 X135.398 Y110.89 E19.49087
G1 X135.006 Y110.738 E19.51395
G1 X139.263 Y114.995 E19.84434
G1 X139.295 Y115.077 E19.84917
G1 X139.487 Y115.721 E19.88605
G1 X139.6 Y116.265 E19.91654
G1 X133.727 Y110.393 E20.37231
G1 X133.617 Y110.37 E20.37848
G1 X133.132 Y110.309 E20.4053
G1 X132.695 Y110.294 E20.4293
G1 X139.704 Y117.303 E20.97327
G1 X139.71 Y118.242 E21.02481
G1 X131.754 Y110.286 E21.64228
G1 X130.82 Y110.286 E21.69354
G1 X139.71 Y119.176 E22.3835
G1 X139.71 Y120.109 E22.4347
G1 X129.887 Y110.286 E23.19707
G1 X128.954 Y110.286 E23.24827
G1 X139.71 Y121.043 E24.0831
G1 X139.71 Y121.976 E24.1343
G1 X128.02 Y110.286 E25.04157
G1 X127.087 Y110.286 E25.09277
G1 X139.71 Y122.909 E26.07246
G1 X139.71 Y123.843 E26.12371
G1 X126.154 Y110.286 E27.17585
G1 X125.22 Y110.286 E27.2271
G1 X139.71 Y124.776 E28.35169
G1 X139.71 Y125.709 E28.40289
G1 X124.287 Y110.286 E29.59988
G1 X123.353 Y110.286 E29.65114
G1 X139.71 Y126.643 E30.92062
G1 X139.71 Y127.576 E30.97182
G1 X122.42 Y110.286 E32.31372
G1 X121.487 Y110.286 E32.36492
G1 X139.71 Y128.51 E33.77926
G1 X139.71 Y129.443 E33.83046
G1 X120.553 Y110.286 E35.31726
G1 X119.62 Y110.286 E35.36846
G1 X139.71 Y130.376 E36.92766
G1 X139.71 Y131.31 E36.97892
G1 X118.686 Y110.286 E38.61061
G1 X117.753 Y110.286 E38.66181
G1 X139.71 Y132.243 E40.36592
G1 X139.709 Y132.473 E40.37854
G1 X139.681 Y133.147 E40.41556
G1 X116.844 Y110.311 E42.18792
G1 X116.387 Y110.369 E42.2132
G1 X116.041 Y110.441 E42.2326
G1 X139.555 Y133.955 E44.05754
G1 X139.487 Y134.282 E44.07587
G1 X139.366 Y134.699 E44.0997
G1 X115.297 Y110.63 E45.96772
G1 X115.093 Y110.69 E45.97939
G1 X114.614 Y110.881 E46.00769
G1 X139.115 Y135.381 E47.9092
G1 X138.803 Y136.003 E47.94738
G1 X113.993 Y111.193 E49.87291
G1 X113.526 Y111.473 E49.90279
G1 X113.418 Y111.551 E49.9101
G1 X138.447 Y136.58 E51.85263
G1 X138.213 Y136.912 E51.87492
G1 X138.045 Y137.112 E51.88925
G1 X112.885 Y111.951 E53.84198
G1 X112.602 Y112.192 E53.86238
G1 X112.397 Y112.397 E53.87829
G1 X137.597 Y137.597 E55.83409
G1 X137.401 Y137.793 E55.8493
G1 X137.109 Y138.043 E55.8704
G1 X111.95 Y112.883 E57.82305
G1 X111.78 Y113.083 E57.83745
G1 X111.548 Y113.415 E57.85968
G1 X136.578 Y138.444 E59.80224
G1 X136.472 Y138.52 E59.8094
G1 X136.001 Y138.802 E59.83953
G1 X111.192 Y113.992 E61.76502
G1 X110.878 Y114.611 E61.80311
G1 X135.378 Y139.111 E63.70458
G1 X134.899 Y139.301 E63.73286
G1 X134.695 Y139.362 E63.74454
G1 X110.628 Y115.295 E65.6124
G1 X110.506 Y115.705 E65.63588
G1 X110.437 Y116.037 E65.65449
G1 X133.951 Y139.551 E67.47943
G1 X133.605 Y139.622 E67.49882
G1 X133.147 Y139.68 E67.52415
G1 X110.311 Y116.845 E69.29644
G1 X110.286 Y117.515 E69.33323
G1 X110.286 Y117.753 E69.34629
G1 X132.242 Y139.709 E71.05032
G1 X131.309 Y139.709 E71.10152
G1 X110.286 Y118.686 E72.73314
G1 X110.286 Y119.62 E72.78439
G1 X130.376 Y139.709 E74.34356
G1 X129.442 Y139.709 E74.39482
G1 X110.286 Y120.553 E75.88153
G1 X110.286 Y121.487 E75.93279
G1 X128.509 Y139.709 E77.34705
G1 X127.575 Y139.709 E77.39831
G1 X110.286 Y122.42 E78.74013
G1 X110.286 Y123.353 E78.79133
G1 X126.642 Y139.709 E80.06073
G1 X125.709 Y139.709 E80.11193
G1 X110.286 Y124.287 E81.30889
G1 X110.286 Y125.22 E81.36009
G1 X124.775 Y139.709 E82.4846
G1 X123.842 Y139.709 E82.5358
G1 X110.286 Y126.154 E83.58785
G1 X110.286 Y127.087 E83.63906
G1 X122.909 Y139.709 E84.6187
G1 X121.975 Y139.709 E84.66996
G1 X110.286 Y128.02 E85.57715
G1 X110.286 Y128.954 E85.62841
G1 X121.042 Y139.709 E86.46315
G1 X120.108 Y139.709 E86.51441
G1 X110.286 Y129.887 E87.27671
G1 X110.286 Y130.82 E87.32791
G1 X119.175 Y139.709 E88.01779
G1 X118.242 Y139.709 E88.06899
G1 X110.286 Y131.754 E88.68643
G1 X110.292 Y132.694 E88.73802
G1 X117.299 Y139.7 E89.2818
G1 X116.862 Y139.683 E89.3058
G1 X116.379 Y139.622 E89.33251
G1 X116.264 Y139.598 E89.33896
G1 X110.384 Y133.719 E89.79527
G1 X110.505 Y134.267 E89.82607
G1 X110.693 Y134.907 E89.86268
G1 X110.727 Y134.995 E89.86786
G1 X114.993 Y139.26 E90.19891
G1 X114.599 Y139.109 E90.22206
G1 X114.063 Y138.846 E90.25483
G1 X113.549 Y138.541 E90.28763
G1 X113.068 Y138.202 E90.31992
G1 X112.63 Y137.829 E90.35149
G1 X112.339 Y137.541 E90.37396
G1 X112.186 Y137.387 E90.38588
G1 F1200 E89.88588
G1 F600 Z0.64
;MESH:NONMESH
G0 F4800 X134.477 Y144.918 Z0.64
;TIME_ELAPSED:88.100698
;LAYER:1
M106 S42.5
M204 S2375
G0 F6600 X134.477 Y144.918 Z0.84
M204 S2000
;TYPE:SKIRT
G1 F600 Z0.4
G1 F600 E90.38588
G1 F1200 X134.105 Y144.969 E90.40648
G1 X133.551 Y145.028 E90.43706
G1 X133.265 Y145.046 E90.45278
G1 X131.499 Y145.081 E90.54972
G1 X118.353 Y145.08 E91.27116
G1 X116.677 Y145.043 E91.36316
G1 X116.345 Y145.019 E91.38143
G1 X115.396 Y144.897 E91.43394
G1 X114.973 Y144.818 E91.45755
G1 X114.384 Y144.685 E91.49069
G1 X113.98 Y144.573 E91.5137
G1 X113.448 Y144.407 E91.54428
G1 X113.046 Y144.263 E91.56772
G1 X112.47 Y144.03 E91.60182
G1 X112.076 Y143.849 E91.62561
G1 X111.629 Y143.626 E91.65302
G1 X111.412 Y143.507 E91.66661
G1 X110.717 Y143.093 E91.711
G1 X110.496 Y142.95 E91.72545
G1 X109.958 Y142.569 E91.76163
G1 X109.755 Y142.412 E91.77571
G1 X109.064 Y141.832 E91.82522
G1 X108.761 Y141.55 E91.84794
G1 X108.426 Y141.215 E91.87393
G1 X108.262 Y141.038 E91.88718
G1 X107.591 Y140.253 E91.94385
G1 X107.37 Y139.956 E91.96417
G1 X106.947 Y139.342 E92.00509
G1 X106.803 Y139.114 E92.01988
G1 X106.4 Y138.414 E92.06421
G1 X106.269 Y138.161 E92.07985
G1 X105.96 Y137.499 E92.11994
G1 X105.864 Y137.273 E92.13341
G1 X105.568 Y136.477 E92.18002
G1 X105.434 Y136.046 E92.20479
G1 X105.322 Y135.641 E92.22785
G1 X105.081 Y134.477 E92.29309
G1 X105.03 Y134.106 E92.31364
G1 X104.971 Y133.554 E92.3441
G1 X104.953 Y133.267 E92.35988
G1 X104.918 Y131.499 E92.45693
G1 X104.919 Y118.349 E93.17859
